openmetadata-ui/src/main/resources/ui/src/assets/svg/ic-explore.svg

<svg width="20" height="20" viewBox="0 0 20 20" fill="none" xmlns="http://www.w3.org/2000/svg">
<g clip-path="url(#clip0)">
<path d="M16.1202 5.22477C14.8925 3.99707 13.3609 3.18367 11.695 2.85473C11.8453 2.58012 11.9309 2.26531 11.9309 1.93082C11.9309 0.866172 11.0647 0 10.0001 0C8.93544 0 8.06927 0.866172 8.06927 1.93082C8.06927 2.26531 8.15485 2.58012 8.30513 2.85473C6.63927 3.18371 5.10767 3.99711 3.87997 5.22477C2.24524 6.85953 1.34497 9.03301 1.34497 11.3449C1.34497 13.6568 2.24524 15.8302 3.87997 17.465C5.51474 19.0997 7.68821 20 10.0001 20C12.312 20 14.4854 19.0997 16.1202 17.465C17.7549 15.8302 18.6552 13.6568 18.6552 11.3449C18.6552 9.03301 17.7549 6.85953 16.1202 5.22477ZM17.4605 10.7589H15.9367C15.6602 7.93641 13.4085 5.68473 10.586 5.40824V3.88445C14.2461 4.1693 17.1757 7.09883 17.4605 10.7589ZM10.0001 16.1384C7.35692 16.1384 5.20657 13.988 5.20657 11.3449C5.20657 8.70172 7.35692 6.55133 10.0001 6.55133C12.6433 6.55133 14.7936 8.70172 14.7936 11.3449C14.7936 13.988 12.6433 16.1384 10.0001 16.1384ZM9.24114 1.93082C9.24114 1.51234 9.58161 1.17188 10.0001 1.17188C10.4186 1.17188 10.759 1.51234 10.759 1.93082C10.759 2.3493 10.4186 2.68973 10.0001 2.68973C9.58161 2.68973 9.24114 2.3493 9.24114 1.93082ZM9.41415 3.88445V5.40824C6.59161 5.68469 4.33993 7.93641 4.06349 10.7589H2.5397C2.8245 7.09883 5.75407 4.1693 9.41415 3.88445ZM2.5397 11.9308H4.06349C4.33993 14.7533 6.59161 17.005 9.41415 17.2814V18.8053C5.75407 18.5205 2.8245 15.5909 2.5397 11.9308ZM10.586 18.8053V17.2814C13.4086 17.005 15.6602 14.7533 15.9367 11.9308H17.4605C17.1757 15.5909 14.2461 18.5205 10.586 18.8053Z" fill="#76746F"/>
<path d="M7.17163 14.1732L11.4142 12.7591L12.8284 8.51653L8.58585 9.9307L7.17163 14.1732ZM9.5123 10.8571L10.9755 10.3694L10.4878 11.8326L9.0246 12.3204L9.5123 10.8571Z" fill="#76746F"/>
</g>
<defs>
<clipPath id="clip0">
<rect width="20" height="20" fill="white"/>
</clipPath>
</defs>
</svg>

<svg xmlns="http://www.w3.org/2000/svg" width="20" height="20" fill="none"><g fill="#76746F" clip-path="url(#a)"><path d="M16.12 5.225a8.594 8.594 0 0 0-4.425-2.37A1.933 1.933 0 0 0 10 0a1.933 1.933 0 0 0-1.695 2.855 8.595 8.595 0 0 0-4.425 2.37 8.599 8.599 0 0 0-2.535 6.12c0 2.312.9 4.485 2.535 6.12A8.599 8.599 0 0 0 10 20c2.312 0 4.485-.9 6.12-2.535a8.599 8.599 0 0 0 2.535-6.12c0-2.312-.9-4.485-2.535-6.12Zm1.34 5.534h-1.523a5.976 5.976 0 0 0-5.351-5.35V3.883a7.495 7.495 0 0 1 6.874 6.875ZM10 16.139a4.799 4.799 0 0 1-4.793-4.794A4.799 4.799 0 0 1 10 6.55a4.799 4.799 0 0 1 4.794 4.794A4.799 4.799 0 0 1 10 16.138ZM9.241 1.93a.76.76 0 1 1 1.52.002.76.76 0 0 1-1.52-.002Zm.173 1.953v1.524a5.976 5.976 0 0 0-5.35 5.35H2.54a7.495 7.495 0 0 1 6.874-6.874ZM2.54 11.931h1.523a5.976 5.976 0 0 0 5.351 5.35v1.524a7.495 7.495 0 0 1-6.874-6.874Zm8.046 6.874v-1.524a5.976 5.976 0 0 0 5.35-5.35h1.524a7.495 7.495 0 0 1-6.874 6.874Z"/><path d="m7.172 14.173 4.242-1.414 1.414-4.242L8.586 9.93l-1.414 4.242Zm2.34-3.316 1.463-.488-.487 1.464-1.463.487.487-1.463Z"/></g><defs><clipPath id="a"><path fill="#fff" d="M0 0h20v20H0z"/></clipPath></defs></svg>
